!!!Rep U0023b
!!!Isim(Name): Al Yanaktan - Al Yanaktan
!!!Yore(Region): Elazığ
!!!Makam: Hicaz
!!!Arizalar(Accidentals): b- c#
!!!Usul: 4/4, Serbest
**kern	**Dcent
*staff1	*.
=1-	=1-
*clefG2	*.
*k[b-c#]	*.
*M4/4	*.
32cc#	0
32dd	0
8ee	0
16dd	0
16ee	0
32dd	0
32ee	0
16dd	0
16cc#	0
8.dd	0
16dd	0
8dd	0
8a	0
=2	=2
32cc#	0
32dd	0
8ee	0
16dd	0
16ee	0
32dd	0
32ee	0
16dd	0
16cc#	0
4dd	0
4r	.
=3	=3
!!linebreak:default
16.dd	0
32cc#	0
16dd	0
16ff#	0
16ee	0
16dd	0
16cc#	0
16b-	0
16cc#	0
16dd	0
16cc#	0
16dd	0
8cc#	0
8b-	0
=4	=4
16.dd	0
32cc#	0
16dd	0
16ff#	0
16ee	0
16dd	0
16cc#	0
16b-	0
16cc#	0
16dd	0
16cc#	0
16dd	0
8cc#	0
32b-	0
32a	0
16b-	0
=5	=5
!!linebreak:default
8cc#	0
8dd	0
8ee	0
8ff	0
8.gg	0
32ff#	0
32ee	0
16ff#	0
16ee	0
8dd	0
=6	=6
16ee	0
16dd	0
8cc#	0
16dd	0
16cc#	0
16b-	0
16a	0
32b-	0
32cc#	0
32b-	0
32a	0
16b-	0
16dd	0
16cc#	0
16b-	0
16b-	0
16g	0
=7	=7
!!linebreak:default
8.a	0
16a	0
8a	0
8a	0
16a	0
16b-	0
16cc#	0
16dd	0
16cc#	0
16b-	0
16b-	0
16g	0
=8	=8
8.a	0
16a	0
8a	0
8g	0
16cc#	0
16dd	0
16.ee	0
32dd	0
16ee	0
32dd	0
32ee	0
16dd	0
16cc#	0
*MX/X	*.
4ddQ	0
!!linebreak:default
*M4/4	*.
32ff	0
32gg	0
8aa	0
16aa	0
8aa	0
8aa	0
8.aa	0
16aa	0
8aa	0
8aa	0
=10	=10
8aa	0
16gg	0
16aa	0
16gg	0
16aa	0
8ff#	0
16gg	0
16gg	0
8ff#	0
16gg	0
16gg	0
8ff#	0
=11	=11
8aa	0
16gg	0
16aa	0
16gg	0
16aa	0
8ff#	0
16gg	0
16gg	0
8ff#	0
16gg	0
16gg	0
8ff#	0
=12	=12
!!linebreak:default
8aa	0
16gg	0
16aa	0
16gg	0
16aa	0
16ff#	0
16gg	0
16ffn	0
16gg	0
16ee	0
16ff	0
16ee	0
16ff	0
8dd	0
=13	=13
8aa	0
16gg	0
16ccc#	0
16gg	0
16gg	0
16ff#	0
16aa	0
16ff#	0
16ff#	0
16ee	0
16gg	0
16ee	0
16ee	0
8dd	0
=14	=14
!!linebreak:default
16cc#	0
16dd	0
16.ee	0
32dd	0
16ee	0
32dd	0
32ee	0
16dd	0
16cc#	0
8.dd	0
16dd	0
8dd	0
8a	0
=15	=15
16cc#	0
16dd	0
16.ee	0
32dd	0
16ee	0
32dd	0
32ee	0
16dd	0
16cc#	0
4dd	0
32ff	0
32gg	0
8aa	0
*MX/X	*.
16aaQ	0
16aaQ	0
8aaQ;	0
*-	*-
!! Uzun Hava Database
!! 
!! Sertan Senturk, Parag Chordia & Erdal Tugcular
!! Georgia Tech Center for Music Technology, 2011
